!!!COM: Gomółka, Mikołaj
!!!CDT: ~1535-after 1591
!!!OTL@POL: Czasu gniewu
!!!OTL@LAT: Domine ne in furore tuo
!!!AGn: Motet; Psalm
!!!SCn: Gom2006
!!!SCn: Gom2006
!!!voices: 4
**kern	**kern	**kern	**kern
*staff4	*staff3	*staff2	*staff1
*Ivox	*Ivox	*Ivox	*Ivox
*I"Bassus	*I"Tenor	*I"Altus	*I"Cantus
*I'B	*I'T	*I'A	*I'C
*clefF4	*clefGv2	*clefG2	*clefG2
*k[b-]	*k[b-]	*k[b-]	*k[b-]
*M2/1	*M2/1	*M2/1	*M2/1
*met(C|)	*met(C|)	*met(C|)	*met(C|)
=1-	=1-	=1-	=1-
1r	1r	1r	1r
2r	2r	2r	2r
2G	2G	2d	2g
=2	=2	=2	=2
1G	1d	1g	1b-
1C	1e-	1g	1cc
=3	=3	=3	=3
2D	2d	2f	2a
2D	2d	2f	2a
2G	2d	2g	2b-
4A	2c	2e	2cc
4G	.	.	.
=4	=4	=4	=4
4F	2f	2a	2a
4E	.	.	.
2D	2f	2a	2ff
2G	4g	2b-	2ee
.	4f	.	.
2B-	4e	2g	2dd
.	4d	.	.
=5	=5	=5	=5
1A	2e	2.a	2dd
.	2e	.	2cc#
.	.	4g	.
2D	2d	2f	2dd
2BB-	2d	2b-	2ff
=6	=6	=6	=6
4BB-	2f	2b-	2dd
4C	.	.	.
4D	2f	2b-	2dd
4E	.	.	.
4F	1f	2.a	2.cc
4E	.	.	.
4F	.	.	.
4G	.	4g	4b-
=7	=7	=7	=7
2A	2c	4f	2a
.	.	4e	.
4D	2d	4f	2b-
4E	.	4g	.
4F	2c	2.a	2a
4G	.	.	.
2A	4f	.	2cc
.	4e	4g	.
=8	=8	=8	=8
2B-	4d	2.f	2b-
.	4c	.	.
2F	4d	.	2.a
.	4c	4e	.
2G	2B-	2d	.
.	.	.	4g
2C	4c	2e-	[2g
.	4B-	.	.
=9	=9	=9	=9
1D	4A	2.d	2g]
.	4G	.	.
.	2A	.	2f#i
.	.	4c	.
2G	2G	2Bn	2g
2G	2G	2d	2g
=10	=10	=10	=10
1G	1d	1g	1b-
1C	1e-	1g	1cc
=11	=11	=11	=11
2D	2d	2f	2a
2D	2d	2f	2a
2G	2d	2g	2b-
4A	2c	2e	2cc
4G	.	.	.
=12	=12	=12	=12
4F	2f	2a	2a
4E	.	.	.
2D	2f	2a	2ff
2G	4g	2b-	2ee
.	4f	.	.
2B-	4e	2g	2dd
.	4d	.	.
=13	=13	=13	=13
1A	2e	2.a	2dd
.	2e	.	2cc#
.	.	4g	.
2D	2d	2f	2dd
2BB-	2d	2b-	2ff
=14	=14	=14	=14
4BB-	2f	2b-	2dd
4C	.	.	.
4D	2f	2b-	2dd
4E	.	.	.
4F	1f	2.a	2.cc
4E	.	.	.
4F	.	.	.
4G	.	4g	4b-
=15	=15	=15	=15
2A	2c	4f	2a
.	.	4e	.
4D	2d	4f	2b-
4E	.	4g	.
4F	2c	2.a	2a
4G	.	.	.
2A	4f	.	2cc
.	4e	4g	.
=16	=16	=16	=16
2B-	4d	2.f	2b-
.	4c	.	.
2F	4d	.	2.a
.	4c	4e	.
2G	2B-	2d	.
.	.	.	4g
2C	4c	2e-	[2g
.	4B-	.	.
=17	=17	=17	=17
1D	4A	2.d	2g]
.	4G	.	.
.	2A	.	2f#i
.	.	4c	.
2G	2G	2Bn	2g
2B-	2G	2d	2dd
=18	=18	=18	=18
2G	2.g	2d	2bn
2G	.	2d	2b
.	4f	.	.
1A	1e	1a	1cc#
=19	=19	=19	=19
2D	2d	2f#	2dd
2G	2d	2g	2b-
2A	2c#	2e	2a
2D	2d	2f#	2a
=20	=20	=20	=20
1.G	2.B-	2g	1b-
.	.	2d	.
.	4A	.	.
.	4B-	2d	2b-
.	4c	.	.
2F#	2d	2A	2a
=21	=21	=21	=21
1G	1B-	4B-	0g
.	.	4c	.
.	.	1d	.
1E-	1G	.	.
.	.	2c#	.
=22	=22	=22	=22
2D	2A	2d	2f#i
2d	2f	2a	2dd
2B-	2B-	2b-	2ff
2c	2g	4g	2ee-
.	.	4a	.
=23	=23	=23	=23
2G	2g	2b-	2dd
2B-	2f	1b-	2dd
1F	2.f	.	1cc
.	.	2a	.
.	4e-	.	.
=24	=24	=24	=24
2G	2d	2b-	2b-
2B-	2B-	2b-	2dd
2A	2c	2f	2cc
2B-	2d	2f	2b-
=25	=25	=25	=25
2.E-i	2.e-	2.g	2.ee-
4E-	4e-	4a	4ee-
2B-	2f	2b-	2dd
2G	2g	2b-	2dd
=26	=26	=26	=26
2.d	2.f	1a	2.dd
4c	4e	.	4ee
2B-	4d	2.b-	1ff
.	4c	.	.
2BB-	2d	.	.
.	.	4a	.
=27	=27	=27	=27
2C	2c	2g	2ee
1D	2A	2f	2a
.	2d	2f	2f
2E-i	4c	4e-	2g
.	4B-	4d	.
=28	=28	=28	=28
2F	2A	2c	2a
2G	2B-	2g	2dd
2A	2c	2e	2cc
2B-	2d	2d	2b-
=29	=29	=29	=29
2G	2d	2g	2b-
2A	2c	2e	2a
2D	2.f	2d	2a
2D	.	2a	2dd
.	4e	.	.
=30	=30	=30	=30
2G	2d	2g	2b-
2C	4e	2g	4cc
.	4d	.	4b-
4F	2c	2f	4a
4E	.	.	4g
4D	4f	4B-	2f
4C	4e	4c	.
=31	=31	=31	=31
4BB-	4d	4d	2b-
4C	4c	4e	.
4D	2B-	2f	4a
4E	.	.	4g
4F	2A	2f	4a
4G	.	.	4b-
2A	2A	2c	2cc
=32	=32	=32	=32
2B-	2.d	2.f	2b-
2F	.	.	1a
.	4c	4e	.
2G	2B-	2d	.
2C	4c	2e	2g
.	4B-	.	.
=33	=33	=33	=33
1D	4A	1d	2g
.	4G	.	.
.	2A	.	2f#i
1G	1G	1d	1g
==	==	==	==
*-	*-	*-	*-
!!!CNT: Polish
!!!OCY: Poland
!!!LYR: Jan Kochanowski (1530-1584/08/22)
!!!GTL: Melodiae na Psałterz Polski
!!!EFL: 6/150
!!!PPR: Łazarz Andrysowicz
!!!PPP: Kraków
!!!PDT: 1580
!!!YEC: 2015 Marcin Konik
!!!ENC: Marcin Konik
!!!END: 2015/03/06
!!!EED: Marcin Konik
!!!EEV: 2015/03/06
!!!ONB: Translated from MusicXML and edited on 2015/03/06 by Marcin Konik
!!!CharacterEncoding: utf-8
!!muse2ps: i2I150v85,85,85,150Q16
!!title: @{OTL}, @{GTL}, ed. @{ENC}
